X:1
T:Top the Candle
R:slip jig
O:19th century Irish
D:Brian McNamara. Fort of Jewels
B:O'Neill's Music of Ireland
Z:Paul Stewart Cranford (P.S.C.), <http://www.cranfordpub.com>
L:1/8
M:9/8
Q:388
K:D
D3 A2 D F2 D|c2 E E2 FG2 E|D3 A2 D F2 D|A2 D D2 F E2 D:|f3 e2 d c2 A|
B2 e e2 d c2 A|[1B3 A2 G F2 D|A2 D D2 F E2 D:|[2B/c/B2 A2 G F2 E|D2 F E2 G F2 E|]
